!!!OTL: 1338. Die Reveille (Wecktrommel).
!!!ODT: 1806 (vor)
!!!ARE: Europa, Mitteleuropa, Deutschland
!!!SCT: E1338A
!!!TXL: @@DE
!!!YEM: Copyright 1995, estate of Helmut Schaffrath.
**kern	**text
*ICvox	*
*M4/4	*
*met(c)	*
*k[b-e-a-]	*
*E-:	*
!LO:TX:a:t=Mel. handſchriftlich in v. Arnims Nachlaß vor 1806.	!
{8e-L	Ach
8gJ	.
=1	=1
4b-	Bru-
8b-	-der
8ee-	ich
4b-	bin
8g	jetʒt
8e-	ge-
=2	=2
4cc	-ſchoſ-
4b-	-ſen,
4r}	.
{8e-	ei-
8g	-ne
=3	=3
4b-	Ku-
8b-	-gel
8b-	hat
(8ccL	mich
8b-	.
8a-J)	.
8g	ge-
=4	=4
4g	-trof-
4f	-fen.
4r}	.
{8e-	Füh-
8g	-ret
=5	=5
4.b-	mich
8g	in
8a-L	mein
8gJ	.
8a-L	Quar-
8b-J	.
=6	=6
4g	-tier,
4r	.
4r}	.
{4ee-	auf
=7	=7
(4cc	daß
8b-)	ich
8a-	ver-
8gL	-bun-
8a-J	.
4f	-den
=8	=8
4e-	werd.
8r}	.
{16gL	Tra
16a-J	.
8b-	la
8b-	la
8b-	la
8b-	la
=9	=9
8b-L	lei-
8gJ	.
8a-L	-dei,
8fJ	.
4r}	.
{4ee-	daß
=10	=10
(4cc	ich
8b-)	.
8a-	ver-
8gL	-bun-
8a-J	.
4f	-den
=11	=11
4e-	werd.
!LO:N:vis=4	!
2r}	.
==	==
!!!AGN: Staende -, Soldaten -, Kriegs - Lied
!!!ONB: ESAC (Essen Associative Code) Database: ERK3
!!!AMT: simple quadruple
!!!AIN: vox
!!!EED: Helmut Schaffrath
!!!EEV: 1.0
!!!GTL: Staendelieder (Berufslieder). 1. Soldaten- und Kriegslieder. Soldatenlieder seit dem 30jaehr. Kriege.
!!!URL-scan: https://rosdok.uni-rostock.de/mcrviewer/recordIdentifier/rosdok_ppn745177999/iview2/phys_0221.iview2?x=-128.77276441889285&y=973.984140472603&scale=0.5870222003877487&rotation=0&layout=singlePageLayout
!!!ENC: Anna Maria Matuszewska
!!!EEV: 2024/12/27
*-	*-
